static/img/icons/ico-phone.svg

<svg fill="none" height="100" viewBox="0 0 100 100" width="100" xmlns="http://www.w3.org/2000/svg"><g fill="#65b400"><path d="m74.0063.490234h-48.0068c-2.7098.001839-5.0786 2.602326-5.0806 5.205886v88.60788c.002 2.6035 2.3706 5.204 5.0806 5.2058h48.0068c2.7098-.0018 5.074-2.6023 5.0759-5.2058l.5102-88.60788c-.0019-2.60356-2.8763-5.204047-5.5861-5.205886zm-48.0068 3.758166h48.0068c.8323 0 1.5068.64808 1.5068 1.44772v5.08828h-51.0204v-5.08828c0-.79964.6745-1.44772 1.5068-1.44772zm49.5136 81.6993h-51.0204v-71.8954h51.0204zm-1.5068 9.804h-48.0068c-.8323 0-1.5068-.6481-1.5068-1.4477v-5.0883h51.0204v5.0883c0 .7996-.6747 1.4477-1.5068 1.4477z"/><path d="m41.4995 9.1503h6.8027c.9392 0 1.7007-.73162 1.7007-1.63399s-.7615-1.63399-1.7007-1.63399h-6.8027c-.9392 0-1.7007.73162-1.7007 1.63399s.7615 1.63399 1.7007 1.63399z"/><path d="m55.104 9.1503h3.4014c.9392 0 1.7006-.73162 1.7006-1.63399s-.7614-1.63399-1.7006-1.63399h-3.4014c-.9392 0-1.7007.73162-1.7007 1.63399s.7615 1.63399 1.7007 1.63399z"/><path d="m56.8052 94.1177h-13.6055c-.9392 0-1.7007-.7316-1.7007-1.634s.7615-1.634 1.7007-1.634h13.6055c.9392 0 1.7006.7316 1.7006 1.634s-.7614 1.634-1.7006 1.634z"/><path d="m16.0921 66.8448c-.6605 0-1.2614-.3676-1.5408-.9428-4.79633-9.892-4.89241-21.2962-.2636-31.2615.3774-.8264 1.3805-1.2024 2.2407-.8398.8601.3625 1.2514 1.3264.8741 2.1527-.0036.008-.0072.0158-.011.0237-4.2222 9.0964-4.1353 19.5041.238 28.5344.3982.8172.0315 1.79-.819 2.1726-.2228.1002-.4656.1527-.7116.1542z"/><path d="m6.84933 70.9968c-.66029.0002-1.26084-.3666-1.54081-.9412-6.049962-12.4726-6.170924-26.8533-.33164-39.4183.38414-.8239 1.39073-1.1926 2.2483-.8235s1.24129 1.3362.85714 2.1601c-5.43579 11.6971-5.32419 25.0844.30613 36.6961.39817.8172.03146 1.79-.81909 2.1726-.22279.1003-.46556.1528-.71153.1542z"/><path d="m83.9125 66.8448c-.9392-.0006-1.7002-.7327-1.6996-1.635.0002-.2392.0548-.4753.1605-.6918 4.3733-9.0302 4.4602-19.4379.2381-28.5343-.3861-.824-.0038-1.7925.8537-2.1634.8576-.371 1.8657-.0037 2.2517.8202 4.6274 9.9633 4.5317 21.3646-.2619 31.2549-.2778.5783-.8797.9488-1.5425.9494z"/><path d="m93.1557 70.9968c-.9392-.0006-1.7003-.7326-1.6996-1.635.0002-.2392.0548-.4753.1605-.6918 5.6303-11.6117 5.7419-24.999.3061-36.6961-.3842-.8239-.0004-1.791.8571-2.1601.8576-.3691 1.8642-.0004 2.2483.8235 5.8369 12.5662 5.7119 26.9469-.3401 39.4183-.2787.5719-.8752.9383-1.5323.9412z"/></g></svg>

<svg width="100" height="100" viewBox="0 0 100 100" fill="none" xmlns="http://www.w3.org/2000/svg">
<path d="M74.0063 0.490234H25.9995C23.2897 0.492073 20.9209 3.09256 20.9189 5.69612V94.304C20.9209 96.9075 23.2895 99.508 25.9995 99.5098H74.0063C76.7161 99.508 79.0803 96.9075 79.0822 94.304L79.5924 5.69612C79.5905 3.09256 76.7161 0.492073 74.0063 0.490234ZM25.9995 4.2484H74.0063C74.8386 4.2484 75.5131 4.89648 75.5131 5.69612V10.7844H24.4927V5.69612C24.4927 4.89648 25.1672 4.2484 25.9995 4.2484ZM75.5131 85.9477H24.4927V14.0523H75.5131V85.9477ZM74.0063 95.7517H25.9995C25.1672 95.7517 24.4927 95.1036 24.4927 94.304V89.2157H75.5131V94.304C75.5131 95.1036 74.8384 95.7517 74.0063 95.7517Z" fill="#65B400"/>
<path d="M41.4995 9.1503H48.3022C49.2414 9.1503 50.0029 8.41868 50.0029 7.51631C50.0029 6.61394 49.2414 5.88232 48.3022 5.88232H41.4995C40.5603 5.88232 39.7988 6.61394 39.7988 7.51631C39.7988 8.41868 40.5603 9.1503 41.4995 9.1503Z" fill="#65B400"/>
<path d="M55.104 9.1503H58.5054C59.4446 9.1503 60.206 8.41868 60.206 7.51631C60.206 6.61394 59.4446 5.88232 58.5054 5.88232H55.104C54.1648 5.88232 53.4033 6.61394 53.4033 7.51631C53.4033 8.41868 54.1648 9.1503 55.104 9.1503Z" fill="#65B400"/>
<path d="M56.8052 94.1177H43.1997C42.2605 94.1177 41.499 93.3861 41.499 92.4837C41.499 91.5813 42.2605 90.8497 43.1997 90.8497H56.8052C57.7444 90.8497 58.5058 91.5813 58.5058 92.4837C58.5058 93.3861 57.7444 94.1177 56.8052 94.1177Z" fill="#65B400"/>
<path d="M16.0921 66.8448C15.4316 66.8448 14.8307 66.4772 14.5513 65.902C9.75497 56.01 9.65889 44.6058 14.2877 34.6405C14.6651 33.8141 15.6682 33.4381 16.5284 33.8007C17.3885 34.1632 17.7798 35.1271 17.4025 35.9534C17.3989 35.9614 17.3953 35.9692 17.3915 35.9771C13.1693 45.0735 13.2562 55.4812 17.6295 64.5115C18.0277 65.3287 17.661 66.3015 16.8105 66.6841C16.5877 66.7843 16.3449 66.8368 16.0989 66.8383L16.0921 66.8448Z" fill="#65B400"/>
<path d="M6.84933 70.9968C6.18904 70.997 5.58849 70.6302 5.30852 70.0556C-0.741442 57.583 -0.862404 43.2023 4.97688 30.6373C5.36102 29.8134 6.36761 29.4447 7.22518 29.8138C8.08275 30.1829 8.46647 31.15 8.08232 31.9739C2.64653 43.671 2.75813 57.0583 8.38845 68.67C8.78662 69.4872 8.41991 70.46 7.56936 70.8426C7.34657 70.9429 7.1038 70.9954 6.85783 70.9968H6.84933Z" fill="#65B400"/>
<path d="M83.9125 66.8448C82.9733 66.8442 82.2123 66.1121 82.2129 65.2098C82.2131 64.9706 82.2677 64.7345 82.3734 64.518C86.7467 55.4878 86.8336 45.0801 82.6115 35.9837C82.2254 35.1597 82.6077 34.1912 83.4652 33.8203C84.3228 33.4493 85.3309 33.8166 85.7169 34.6405C90.3443 44.6038 90.2486 56.0051 85.455 65.8954C85.1772 66.4737 84.5753 66.8442 83.9125 66.8448Z" fill="#65B400"/>
<path d="M93.1557 70.9968C92.2165 70.9962 91.4554 70.2642 91.4561 69.3618C91.4563 69.1226 91.5109 68.8865 91.6166 68.67C97.2469 57.0583 97.3585 43.671 91.9227 31.9739C91.5385 31.15 91.9223 30.1829 92.7798 29.8138C93.6374 29.4447 94.644 29.8134 95.0281 30.6373C100.865 43.2035 100.74 57.5842 94.688 70.0556C94.4093 70.6275 93.8128 70.9939 93.1557 70.9968Z" fill="#65B400"/>
</svg>
